src/22/actions/motion_path_animations.svg

<svg xmlns="http://www.w3.org/2000/svg" viewBox="0 0 22 22">
  <defs id="defs3051">
    <style type="text/css" id="current-color-scheme">
      .ColorScheme-Text {
        color:#5d656b;
      }
      </style>
  </defs>
 <path 
     style="fill:currentColor;fill-opacity:1;stroke:none" 
     d="M 3 3 L 3 4 L 9 4 L 9 3 L 3 3 z M 16 3 L 16 6 L 17 6 L 17 16.091797 C 16.575544 16.242058 16.243254 16.577337 16.091797 17 L 6 17 L 6 16 L 3 16 L 3 19 L 6 19 L 6 18 L 16.091797 18 C 16.297803 18.581923 16.84576 19 17.5 19 C 18.331 19 19 18.331 19 17.5 C 19 16.84576 18.581923 16.297803 18 16.091797 L 18 6 L 19 6 L 19 3 L 16 3 z M 10 4 L 8.1464844 7.9511719 L 4 8.5839844 L 7 11.658203 L 6.2929688 16 L 10 13.951172 L 13.707031 16 L 13 11.658203 L 16 8.5839844 L 11.853516 7.9511719 L 10 4 z M 17 4 L 18 4 L 18 5 L 17 5 L 17 4 z M 3 5 L 3 6 L 8 6 L 8 5 L 3 5 z M 3 7 L 3 8 L 6.2460938 8 L 6.2460938 7 L 3 7 z M 3 11 L 3 12 L 5 12 L 5 11 L 3 11 z M 3 13 L 3 14 L 6 14 L 6 13 L 3 13 z M 4 17 L 5 17 L 5 18 L 4 18 L 4 17 z M 17.5 17 C 17.777 17 18 17.223 18 17.5 C 18 17.777 17.777 18 17.5 18 C 17.223 18 17 17.777 17 17.5 C 17 17.223 17.223 17 17.5 17 z "
	 class="ColorScheme-Text"
     />
</svg>

<svg xmlns="http://www.w3.org/2000/svg" viewBox="0 0 22 22"><path d="M3 3v1h6V3H3zm13 0v3h1v10.092c-.424.15-.757.485-.908.908H6v-1H3v3h3v-1h10.092A1.497 1.497 0 1 0 18 16.092V6h1V3h-3zm-6 1L8.146 7.951 4 8.584l3 3.074L6.293 16 10 13.951 13.707 16 13 11.658l3-3.074-4.146-.633L10 4zm7 0h1v1h-1V4zM3 5v1h5V5H3zm0 2v1h3.246V7H3zm0 4v1h2v-1H3zm0 2v1h3v-1H3zm1 4h1v1H4v-1zm13.5 0a.499.499 0 1 1 0 1 .499.499 0 1 1 0-1z" fill="currentColor" color="#5d656b"/></svg>
